src/img/icons/icon-odnoklassniki.svg

<?xml version="1.0" encoding="UTF-8"?>
<svg width="36px" height="36px" viewBox="0 0 36 36" version="1.1" xmlns="http://www.w3.org/2000/svg" xmlns:xlink="http://www.w3.org/1999/xlink">
    <!-- Generator: sketchtool 53.2 (72643) - https://sketchapp.com -->
    <title>96ACAE49-0FF2-43A0-AAFF-D91F2DE37A4B</title>
    <desc>Created with sketchtool.</desc>
    <g id="Header-&amp;-Footer" stroke="none" stroke-width="1" fill="none" fill-rule="evenodd">
        <g id="Footer/footer-desktop-1280" transform="translate(-239.000000, -261.000000)" fill-rule="nonzero">
            <g id="icon/social/ico-social-odnoklassniki-ghost" transform="translate(239.000000, 261.000000)">
                <circle id="Oval-path" stroke="#4489FF" stroke-width="1" cx="18" cy="18" r="17.5"></circle>
                <path d="M20.2069284,22.4282606 C21.2843134,22.1829156 22.3216965,21.7562284 23.2764356,21.1561997 C23.9991369,20.7001778 24.217814,19.745492 23.7617655,19.0200972 C23.3057436,18.2947291 22.3510579,18.076052 21.6256631,18.5320738 C19.4602259,19.8948058 16.6734256,19.892139 14.5079885,18.5320738 C13.782647,18.076052 12.8279079,18.2947291 12.371886,19.0200972 C11.9158642,19.7427985 12.1345413,20.7001778 12.8572426,21.1561997 C13.8119551,21.7562284 14.8493382,22.1829156 15.9267232,22.4282606 L12.9745816,25.383069 C12.3692459,25.9884047 12.3692459,26.9671183 12.9745816,27.5725073 C13.2785962,27.8738551 13.6732818,28.0258624 14.0679674,28.0258624 C14.4653197,28.0258624 14.8600053,27.8738551 15.1640466,27.5725073 L18.0681592,24.6683681 L20.9722984,27.5725073 C21.5776608,28.1778697 22.5563744,28.1778697 23.1617367,27.5725073 C23.7670991,26.967145 23.7670991,25.9857646 23.1617367,25.383069 L20.2069284,22.4282606 L20.2069284,22.4282606 Z" id="Path" fill="#4489FF"></path>
                <path d="M18.0681592,18.1160539 C15.1533527,18.1160539 12.7825991,15.7452735 12.7825991,12.8304671 C12.7825991,9.91566068 15.1533527,7.54488033 18.0681592,7.54488033 C20.9829923,7.54488033 23.3537459,9.91566068 23.3537459,12.8331072 C23.3537459,15.7452735 20.9829923,18.1160539 18.0681592,18.1160539 Z M18.0681592,10.6436956 C16.8627947,10.6436956 15.8787209,11.625076 15.8787209,12.8331339 C15.8787209,14.038525 16.8627947,15.0199054 18.0681592,15.0199054 C19.2762438,15.0199054 20.2576242,14.038525 20.2576242,12.8331339 C20.2576242,11.625076 19.2762438,10.6436956 18.0681592,10.6436956 Z" id="Combined-Shape" fill="#4489FF"></path>
            </g>
        </g>
    </g>
</svg>

<svg width="36" height="36" xmlns="http://www.w3.org/2000/svg"><g fill-rule="nonzero" fill="none"><circle stroke="#4489FF" cx="18" cy="18" r="17.5"/><path d="M20.207 22.428a9.893 9.893 0 0 0 3.07-1.272 1.55 1.55 0 0 0-1.651-2.624 6.713 6.713 0 0 1-7.118 0 1.55 1.55 0 0 0-1.65 2.624 9.893 9.893 0 0 0 3.069 1.272l-2.952 2.955a1.547 1.547 0 0 0 1.093 2.643c.397 0 .792-.152 1.096-.453l2.904-2.905 2.904 2.905a1.547 1.547 0 0 0 2.19 0 1.547 1.547 0 0 0 0-2.19l-2.955-2.955zM18.068 18.116a5.291 5.291 0 0 1-5.285-5.286 5.291 5.291 0 0 1 5.285-5.285 5.292 5.292 0 0 1 5.286 5.288 5.29 5.29 0 0 1-5.286 5.283zm0-7.472c-1.205 0-2.19.981-2.19 2.19a2.19 2.19 0 0 0 4.379 0 2.19 2.19 0 0 0-2.189-2.19z" fill="#4489FF"/></g></svg>
